javascript.info/1-js/08-prototypes/02-function-prototype/proto-constructor-animal-rabbit.svg

<?xml version="1.0" encoding="UTF-8"?>
<svg width="453px" height="160px" viewBox="0 0 453 160" version="1.1" xmlns="http://www.w3.org/2000/svg" xmlns:xlink="http://www.w3.org/1999/xlink">
    <!-- Generator: sketchtool 55.2 (78181) - https://sketchapp.com -->
    <title>proto-constructor-animal-rabbit.svg</title>
    <desc>Created with sketchtool.</desc>
    <g id="inheritance" stroke="none" stroke-width="1" fill="none" fill-rule="evenodd">
        <g id="proto-constructor-animal-rabbit.svg">
            <rect id="Rectangle-1" stroke="#E8C48E" stroke-width="2" fill="#FFF9EB" x="233" y="23" width="187" height="28"></rect>
            <text id="eats:-true" font-family="PTMono-Regular, PT Mono" font-size="14" font-weight="normal" fill="#8A704D">
                <tspan x="243" y="42">eats: true</tspan>
            </text>
            <rect id="Rectangle-1-Copy" stroke="#E8C48E" stroke-width="2" fill="#FFF9EB" x="233" y="124" width="187" height="28"></rect>
            <text id="name:-&quot;White-Rabbit&quot;" font-family="PTMono-Regular, PT Mono" font-size="14" font-weight="normal" fill="#8A704D">
                <tspan x="246" y="143">name: "White Rabbit"</tspan>
            </text>
            <text id="animal" font-family="PTMono-Regular, PT Mono" font-size="14" font-weight="normal" fill="#8A704D">
                <tspan x="232" y="15">animal</tspan>
            </text>
            <rect id="Rectangle-1-Copy-2" stroke="#E8C48E" stroke-width="2" fill="#FFF9EB" x="10" y="23" width="99" height="28"></rect>
            <text id="Rabbit" font-family="PTMono-Regular, PT Mono" font-size="14" font-weight="normal" fill="#8A704D">
                <tspan x="9" y="15">Rabbit</tspan>
            </text>
            <text id="rabbit" font-family="PTMono-Regular, PT Mono" font-size="14" font-weight="normal" fill="#8A704D">
                <tspan x="238" y="113">rabbit</tspan>
            </text>
            <path id="Line" d="M322.5,82.5 L322.5,110.5 L320.5,110.5 L320.5,82.5 L314.5,82.5 L321.5,68.5 L328.5,82.5 L322.5,82.5 Z" fill="#EE6B47" fill-rule="nonzero"></path>
            <path id="Line-Copy" d="M208,35 L127,35 L127,33 L208,33 L208,27 L222,34 L208,41 L208,35 Z" fill="#EE6B47" fill-rule="nonzero"></path>
            <text id="[[Prototype]]" font-family="PTMono-Regular, PT Mono" font-size="14" font-weight="normal" fill="#8A704D">
                <tspan x="331" y="92">[[Prototype]]</tspan>
            </text>
            <text id="prototype" font-family="PTMono-Regular, PT Mono" font-size="14" font-weight="normal" fill="#8A704D">
                <tspan x="134" y="22">prototype</tspan>
            </text>
        </g>
    </g>
</svg>

<svg xmlns="http://www.w3.org/2000/svg" width="453" height="160" viewBox="0 0 453 160"><defs><style>@import url(https://fonts.googleapis.com/css?family=Open+Sans:bold,italic,bolditalic%7CPT+Mono);@font-face{font-family:&apos;PT Mono&apos;;font-weight:700;font-style:normal;src:local(&apos;PT MonoBold&apos;),url(/pack/modules/styles/blocks/font/PTMonoBold.woff2) format(&apos;woff2&apos;),url(/pack/modules/styles/blocks/font/PTMonoBold.woff) format(&apos;woff&apos;),url(/pack/modules/styles/blocks/font/PTMonoBold.ttf) format(&apos;truetype&apos;)}</style></defs><g id="inheritance" fill="none" fill-rule="evenodd" stroke="none" stroke-width="1"><g id="proto-constructor-animal-rabbit.svg"><path id="Rectangle-1" fill="#FFF9EB" stroke="#E8C48E" stroke-width="2" d="M233 23h187v28H233z"/><text id="eats:-true" fill="#8A704D" font-family="PTMono-Regular, PT Mono" font-size="14" font-weight="normal"><tspan x="243" y="42">eats: true</tspan></text><path id="Rectangle-1-Copy" fill="#FFF9EB" stroke="#E8C48E" stroke-width="2" d="M233 124h187v28H233z"/><text id="name:-&quot;White-Rabbit&quot;" fill="#8A704D" font-family="PTMono-Regular, PT Mono" font-size="14" font-weight="normal"><tspan x="246" y="143">name: &quot;White Rabbit&quot;</tspan></text><text id="animal" fill="#8A704D" font-family="PTMono-Regular, PT Mono" font-size="14" font-weight="normal"><tspan x="232" y="15">animal</tspan></text><path id="Rectangle-1-Copy-2" fill="#FFF9EB" stroke="#E8C48E" stroke-width="2" d="M10 23h99v28H10z"/><text id="Rabbit" fill="#8A704D" font-family="PTMono-Regular, PT Mono" font-size="14" font-weight="normal"><tspan x="9" y="15">Rabbit</tspan></text><text id="rabbit" fill="#8A704D" font-family="PTMono-Regular, PT Mono" font-size="14" font-weight="normal"><tspan x="238" y="113">rabbit</tspan></text><path id="Line" fill="#EE6B47" fill-rule="nonzero" d="M322.5 82.5v28h-2v-28h-6l7-14 7 14h-6z"/><path id="Line-Copy" fill="#EE6B47" fill-rule="nonzero" d="M208 35h-81v-2h81v-6l14 7-14 7v-6z"/><text id="[[Prototype]]" fill="#8A704D" font-family="PTMono-Regular, PT Mono" font-size="14" font-weight="normal"><tspan x="331" y="92">[[Prototype]]</tspan></text><text id="prototype" fill="#8A704D" font-family="PTMono-Regular, PT Mono" font-size="14" font-weight="normal"><tspan x="134" y="22">prototype</tspan></text></g></g></svg>
